X: 23665
T: Linda Indigo's
R: reel
M: 4/4
K: Amajor
|:"F#m"EFAF "Bm"B4|BABe"F#m"c4|cBAE "D"F3E|"A"dc2A"Bm"B4|
"F#m"EFAF "Bm"B4|BABe"F#m"c4|cBAE"D"F3E|1 "C#m"Ecec "A"BAA2:|2 "F#m"FcBA"A"A4||
|:"C#m"Bcec "A"fe3-|eefa"F#m"c4|-cdcA "D"DF3|"A"E (3dcA"Bm"B4|
"C#m"BceA "A"fe3-|eefa"F#m"c4|-cd/c/AE"D"F3E|"F#m"FcBA"A"A4:|

